X: 12688
T: Father Brian MacDermott Roe
R: waltz
M: 3/4
K: Gmajor
g3/2e/|d2cB AG|AG E2G/E/D|E2G2G2|G4Bc|
d2cB AG|G4fg|a2gf ed|efg2||
gf|ed Bd ef|g2g2fg|a2gf ed|efg2gf|
d2cB AG|AG E2G/E/D|E2G2G2|G4||

